X: 33288
T: Put Me In The Big Chest
R: reel
M: 4/4
K: Amajor
|:AF|EFAB c2 af|ecBA F2 AF|EFAB c2 ca|ecBc A2:|
|:Ac|efec eAAe|faec BABc|efec efac|BAcB A2:|

